src/_assets/icons/beneficiary-icon.svg

<svg width="14" height="14" viewBox="0 0 14 14" fill="none" xmlns="http://www.w3.org/2000/svg">
<path fill-rule="evenodd" clip-rule="evenodd" d="M12.6795 9.81166C12.2361 8.40582 11.0461 7.60082 9.41279 7.60082H9.38945C8.67195 7.60082 8.04779 7.75832 7.52279 8.04416C8.84112 8.52249 9.82112 9.50832 10.2761 10.8792C11.1453 10.7858 11.9095 10.5408 12.5511 10.15L12.7495 10.0275L12.6795 9.81166Z" fill="#485F7D"/>
<path fill-rule="evenodd" clip-rule="evenodd" d="M8.14112 6.41083C8.49695 6.66166 8.93445 6.81332 9.40112 6.81332C10.6028 6.81332 11.5828 5.83332 11.5828 4.62582C11.5828 3.42416 10.6028 2.44416 9.40112 2.44416C9.06278 2.44416 8.74779 2.51999 8.46195 2.65999C8.73612 3.14416 8.89362 3.70416 8.89362 4.29916C8.89362 5.09833 8.61362 5.83332 8.14112 6.41083Z" fill="#485F7D"/>
<path fill-rule="evenodd" clip-rule="evenodd" d="M9.67529 10.92C9.21445 9.66582 8.25779 8.81416 6.95112 8.46999C6.52529 8.35332 6.05279 8.29499 5.55112 8.29499H5.52195C3.42195 8.29499 1.89362 9.32749 1.32195 11.13L1.25195 11.3458L1.45029 11.4625C2.55862 12.145 3.88862 12.4717 5.50445 12.4717H5.53362C7.19029 12.4775 8.50862 12.145 9.62279 11.4625L9.82112 11.3458L9.75112 11.13C9.72779 11.06 9.70445 10.99 9.67529 10.92Z" fill="#485F7D"/>
<path fill-rule="evenodd" clip-rule="evenodd" d="M5.5336 7.07582C6.42027 7.07582 7.20777 6.65582 7.71527 6.00832C8.0886 5.54165 8.31027 4.94665 8.31027 4.29915C8.31027 3.82082 8.18777 3.37165 7.97777 2.98082C7.50527 2.11749 6.58943 1.52832 5.5336 1.52832C4.00527 1.52832 2.76277 2.77082 2.76277 4.29915C2.76277 5.82749 4.00527 7.07582 5.5336 7.07582Z" fill="#485F7D"/>
</svg>

<svg xmlns="http://www.w3.org/2000/svg" width="14" height="14" fill="none"><path fill="#485F7D" fill-rule="evenodd" d="M12.68 9.812C12.236 8.406 11.046 7.6 9.413 7.6h-.024c-.717 0-1.341.157-1.866.443 1.318.478 2.298 1.464 2.753 2.835.87-.093 1.633-.338 2.275-.729l.198-.123zM8.141 6.41c.356.252.793.403 1.26.403 1.202 0 2.182-.98 2.182-2.187 0-1.202-.98-2.182-2.182-2.182-.338 0-.653.076-.939.216.274.484.432 1.044.432 1.64 0 .798-.28 1.533-.753 2.11" clip-rule="evenodd"/><path fill="#485F7D" fill-rule="evenodd" d="M9.675 10.92c-.46-1.254-1.417-2.106-2.724-2.45a5.3 5.3 0 0 0-1.4-.175h-.029c-2.1 0-3.628 1.032-4.2 2.835l-.07.216.198.117c1.109.682 2.439 1.009 4.054 1.009h.03c1.656.005 2.975-.327 4.089-1.01l.198-.116-.07-.216a3 3 0 0 0-.076-.21M5.534 7.076c.886 0 1.674-.42 2.181-1.068A2.73 2.73 0 0 0 8.31 4.3a2.8 2.8 0 0 0-.332-1.318 2.79 2.79 0 0 0-2.444-1.453 2.773 2.773 0 0 0 0 5.548" clip-rule="evenodd"/></svg>
